X:84
T:Roast Beef,The. JBs.084
S:Jas.Blackshaw MS, 1837, N.Shropshire
A:North Shropshire
Z:T. Weatherall 2006
M:6/8
L:1/8
Q:3/8=80
R:Air
K:F
c|f>gf efg|afa gfe|f>gf edc| ec=B c2||z|dBd fed|!
cAc d>ef|gab a>câ€™g|fed cBA|Bcd ece|â€*â€f3f2|]

